!!!OTL: "Die Weisen. " ES FUHREN DREI KOENIGE AUS MORGENLAND
!!!ARE: Europa, Mitteleuropa, Deutschland, Niederrhein
!!!SCT: Z1099
!!!YEM: Copyright 1995, estate of Helmut Schaffrath.
**kern
*ICvox
*Ivox
*M3/4
*k[f#]
*e:
{4dn
=1
4.gn
8a
4f#
=2
4.gn
8a
4b
=3
4a
4gn
4f#
=4
2gn}
{4dn
=5
4.gn
8a
4f#
=6
4.gn
8a
4b
=7
4a
4gn
4f#
=8
2gn}
{8gn
8f#
=9
2e
4f#
=10
2gn
4f#
=11
2e
4d#
=12
2e}
{8f#
8e
=13
2dn
4f#
=14
2gn
4f#
=15
2e
4d#
=16
2e}
==
!!!AGN: Romanze, Ballade, Weihnachts - Lied
!!!ONB: ESAC (Essen Associative Code) Database: ZUCCAL
!!!AMT: simple triple
!!!AIN: vox
!!!EED: Helmut Schaffrath
!!!EEV: 1.0
*-
